flocash-template/images/banner-shape.svg

<svg width="1587" height="197" viewBox="0 0 1587 197" fill="none" xmlns="http://www.w3.org/2000/svg">
<path d="M1340.7 176.801C1340.2 176.501 1339.8 175.801 1339.3 175.801C1336.8 175.701 1334.3 175.901 1331.8 175.701C1325.1 175.401 1318.3 175.401 1311.6 174.601C1304.9 173.801 1298.3 173.201 1291.6 172.601C1285.5 172.001 1279.5 170.601 1273.4 169.701C1268.1 168.901 1262.7 168.501 1257.4 167.601C1250.4 166.401 1243.4 165.201 1236.5 163.601C1227.4 161.501 1218.4 159.001 1209.4 156.701C1205.8 155.801 1202.3 154.701 1198.7 153.701C1186.6 150.501 1174.6 146.801 1162.5 143.401C1150.7 140.101 1138.9 137.001 1127.1 133.901C1115.9 130.901 1104.4 129.001 1093.1 126.601C1085.4 125.001 1077.7 123.201 1069.9 121.701C1065 120.801 1059.9 119.901 1054.9 119.801C1053 119.701 1052.3 117.401 1050.2 118.301C1048.6 119.001 1046.8 118.501 1045 117.901C1042.4 117.001 1039.6 117.001 1036.8 116.701C1033.1 116.301 1029.1 116.701 1025.6 115.501C1021.6 114.101 1017.3 115.801 1013.6 113.701C1013.5 113.601 1013.3 113.701 1013.1 113.701C1008.2 113.401 1003.3 113.101 998.4 112.701C995.5 112.501 992.6 112.001 989.7 111.701C986.9 111.501 984.1 112.201 981.5 110.701C981.1 110.501 980.5 110.701 980 110.701C965.8 110.201 951.5 109.301 937.3 109.601C933.9 109.701 930.4 108.401 927.1 108.801C914.5 110.401 901.9 109.201 889.4 109.801C886.9 109.901 884.5 109.901 882 110.101C879.4 110.201 876.8 110.401 874.2 110.801C866.8 111.901 859.2 112.101 851.8 113.001C848.2 113.501 844.4 113.301 840.8 114.601C838.2 115.501 835 115.201 832.1 115.601C825.5 116.601 819 117.701 812.4 118.701C806 119.701 799.4 120.001 793 120.801C790.1 121.201 787.3 121.801 784.5 122.501C781.6 123.201 778.7 122.501 775.8 123.501C772.7 124.601 769 124.301 765.6 124.701C763.7 124.901 761.8 125.401 759.9 125.701C758 125.901 756.1 125.901 754.1 126.501C751.2 127.401 748 126.801 744.9 127.601C741.1 128.501 737.1 128.301 733.2 128.801C731.3 129.001 729.4 129.401 727.5 129.801C725.8 130.101 724 130.401 722.3 130.701C721.6 130.801 721 130.801 720.3 130.801C715.1 130.801 710 131.901 704.8 132.701C700.3 133.401 695.7 133.501 691.1 133.801C685.7 134.101 680.4 134.701 675.1 135.701C671.9 136.301 668.6 136.001 665.4 136.601C660.6 137.601 655.5 136.901 650.7 137.901C645.9 138.901 640.9 137.801 636.2 139.701C635.9 139.801 635.5 139.701 635.2 139.701C629.6 140.001 624 139.901 618.5 140.801C613.3 141.701 608 140.801 603 142.601C602.7 142.701 602.3 142.601 602 142.601C595.3 142.901 588.5 143.201 581.8 143.601C578.7 143.801 575.6 144.301 572.6 144.601C569.7 144.901 566.6 144.001 563.9 145.601C563.6 145.701 563.2 145.601 562.9 145.601C554.7 145.901 546.4 145.901 538.2 146.701C532.1 147.301 525.9 146.801 520 147.801C514.4 148.701 508.8 148.001 503.2 148.701C494.5 149.801 485.7 148.901 477 149.801C459.4 151.501 441.8 150.201 424.3 150.601C414.6 150.801 405 150.801 395.3 150.601C384.4 150.401 373.4 150.401 362.6 149.401C357.7 149.001 352.7 149.001 347.9 148.501C340.3 147.701 332.6 147.001 324.9 146.401C318.7 145.901 312.6 145.201 306.4 144.401C300.3 143.601 294.1 143.401 288.1 141.701C284.9 140.801 281.3 141.001 277.9 140.501C273.1 139.801 268.3 139.101 263.5 138.201C259.1 137.401 254.7 136.401 250.2 135.501C243.3 134.101 236.3 132.801 229.4 131.101C222 129.401 214.7 127.401 207.4 125.501C195.1 122.201 182.9 118.801 171.1 114.001C161.2 110.001 151.2 106.501 141.5 102.101C133 98.7006 125.4 94.0006 117.4 90.0006C110.1 86.3006 103.4 81.9006 96.6998 77.2006C90.7998 73.1006 84.7998 69.2006 79.5998 64.1006C76.4998 61.1006 73.1998 58.4007 70.0998 55.5007C62.8998 48.7007 56.0998 41.5006 50.7998 32.6006C52.5998 31.0006 54.0998 28.7006 57.1998 30.5006C57.5998 30.7006 58.0998 30.8006 58.5998 30.8006C65.6998 31.1006 72.6998 31.5006 79.7998 31.8006C86.1998 32.1006 92.5998 32.6006 98.9998 33.0006C103.1 33.3006 107.2 33.1006 111.2 33.8006C116.8 34.8006 122.5 34.0007 127.9 34.9007C132.2 35.6007 136.5 35.1006 140.6 35.8006C146 36.8006 151.5 36.0007 156.8 36.9007C161.4 37.7007 166.2 36.8007 170.5 37.9007C176.7 39.5007 183 37.5007 189 39.7007C189.3 39.8007 189.7 39.7007 190 39.7007C197.7 40.0007 205.5 39.9006 213.2 40.8006C218.8 41.5006 224.4 41.0007 229.9 41.9007C234 42.6007 238.1 42.1006 242.1 42.8006C247.7 43.8006 253.3 43.0007 258.8 43.9007C262.9 44.6007 267 44.1006 271 44.8006C276.6 45.8006 282.3 45.0007 287.7 45.9007C292 46.6007 296.3 46.1006 300.4 46.8006C305.8 47.8006 311.3 47.0007 316.6 47.9007C321.2 48.7007 326 47.8007 330.3 48.9007C336.5 50.4007 342.8 48.5007 348.8 50.7007C349.1 50.8007 349.5 50.7007 349.8 50.7007C357.5 51.0007 365.3 50.9006 373 51.8006C378.6 52.5006 384.2 52.0007 389.7 52.9007C393.8 53.6007 397.9 53.1006 401.9 53.8006C407.5 54.8006 413.2 54.0007 418.6 54.9007C422.9 55.6007 427.2 55.1006 431.3 55.8006C436.7 56.8006 442.2 56.0007 447.5 56.9007C451.8 57.6007 456.1 57.1006 460.2 57.8006C465.6 58.8006 471.1 58.0007 476.4 58.9007C481 59.7007 485.8 58.8007 490.1 59.9007C496.3 61.4007 502.6 59.5007 508.6 61.7007C508.9 61.8007 509.3 61.7007 509.6 61.7007C517.3 62.0007 525.1 61.9006 532.8 62.8006C538.4 63.5006 544 63.0007 549.5 63.9007C553.6 64.6007 557.7 64.1007 561.7 64.8007C567.3 65.8007 573 65.0007 578.4 65.9007C582.7 66.6007 587 66.1007 591.1 66.8007C596.5 67.8007 602 67.0007 607.3 67.9007C611.6 68.6007 615.9 68.1007 620 68.8007C625.4 69.8007 630.9 69.0007 636.2 69.9007C640.8 70.7007 645.6 69.8007 649.9 70.9007C656.1 72.4007 662.4 70.5006 668.4 72.7006C668.7 72.8006 669.1 72.7006 669.4 72.7006C677.1 73.0006 684.9 72.9007 692.6 73.8007C698.2 74.5007 703.8 74.0007 709.3 74.9007C713.4 75.6007 717.5 75.1007 721.5 75.8007C727.1 76.8007 732.8 76.0007 738.2 76.9007C742.5 77.6007 746.8 77.1007 750.9 77.8007C756.3 78.8007 761.8 78.0007 767.1 78.9007C771.4 79.6007 775.7 79.1007 779.8 79.8007C785.2 80.8007 790.7 80.0007 796 80.9007C800.6 81.7007 805.3 80.8007 809.7 81.9007C815.9 83.4007 822.2 81.5006 828.2 83.7006C828.5 83.8006 828.9 83.7006 829.2 83.7006C836.9 84.0006 844.7 83.9007 852.4 84.8007C858 85.5007 863.6 85.0007 869.1 85.9007C873.2 86.6007 877.3 86.1007 881.3 86.8007C886.9 87.8007 892.6 87.0007 898 87.9007C902.3 88.6007 906.6 88.1007 910.7 88.8007C916.1 89.8007 921.6 89.0007 926.9 89.9007C931.2 90.6007 935.5 90.1007 939.6 90.8007C945 91.8007 950.5 91.0007 955.8 91.9007C960.4 92.7007 965.1 91.8007 969.5 92.9007C975.7 94.4007 982 92.5006 988 94.7006C988.3 94.8006 988.7 94.7006 989 94.7006C996.7 95.0006 1004.5 94.9007 1012.2 95.8007C1017.8 96.5007 1023.4 96.0007 1028.9 96.9007C1033 97.6007 1037.1 97.1007 1041.1 97.8007C1046.7 98.8007 1052.4 98.0007 1057.8 98.9007C1062.1 99.6007 1066.4 99.1007 1070.5 99.8007C1075.9 100.801 1081.4 100.001 1086.7 100.901C1091 101.601 1095.3 101.101 1099.4 101.801C1104.8 102.801 1110.3 102.001 1115.6 102.901C1120.2 103.701 1125 102.801 1129.3 103.901C1135.5 105.401 1141.8 103.501 1147.8 105.701C1148.1 105.801 1148.5 105.701 1148.8 105.701C1156.5 106.001 1164.3 105.901 1172 106.801C1177.6 107.501 1183.2 107.001 1188.7 107.901C1192.8 108.601 1196.9 108.101 1200.9 108.801C1206.5 109.801 1212.2 109.001 1217.6 109.901C1221.9 110.601 1226.2 110.101 1230.3 110.801C1235.7 111.801 1241.2 111.001 1246.5 111.901C1250.8 112.601 1255.1 112.101 1259.2 112.801C1264.6 113.801 1270.1 113.001 1275.4 113.901C1280 114.701 1284.8 113.801 1289.1 114.901C1295.3 116.401 1301.6 114.501 1307.6 116.701C1307.9 116.801 1308.3 116.701 1308.6 116.701C1316.3 117.001 1324.1 116.901 1331.8 117.801C1337.4 118.501 1343 118.001 1348.5 118.901C1352.6 119.601 1356.7 119.101 1360.7 119.801C1366.3 120.801 1372 120.001 1377.4 120.901C1381.7 121.601 1386 121.101 1390.1 121.801C1395.5 122.801 1401 122.001 1406.3 122.901C1410.6 123.601 1414.9 123.101 1419 123.801C1424.4 124.801 1429.9 124.001 1435.2 124.901C1439.8 125.701 1444.6 124.801 1448.9 125.901C1455.1 127.401 1461.4 125.501 1467.4 127.701C1467.7 127.801 1468.1 127.701 1468.4 127.701C1476.1 128.001 1483.9 127.901 1491.6 128.801C1497.2 129.501 1502.8 129.001 1508.3 129.901C1512.4 130.601 1516.5 130.101 1520.5 130.801C1526.1 131.801 1531.7 131.201 1537.2 131.901C1540.5 132.301 1543.7 132.801 1546.9 132.701C1549.4 132.601 1550.9 133.701 1552.1 136.101C1550.9 136.901 1549.8 137.801 1548.6 138.501C1540.5 143.601 1532.2 148.301 1523.4 152.101C1514.6 155.901 1505.7 159.001 1496.6 161.801C1488.9 164.201 1481.2 166.301 1473.3 167.901C1467.1 169.101 1460.9 170.001 1454.6 170.901C1449.3 171.601 1444 172.301 1438.6 172.901C1431.9 173.701 1425.3 174.201 1418.6 175.001C1412.1 175.801 1405.8 175.601 1399.3 175.801C1398.8 175.801 1398.3 176.401 1397.9 176.801C1380 176.801 1360.4 176.801 1340.7 176.801Z" fill="url(#paint0_linear_1156_7655)"/>
<defs>
<linearGradient id="paint0_linear_1156_7655" x1="802.526" y1="80.3378" x2="797.33" y2="184.995" gradientUnits="userSpaceOnUse">
<stop offset="0.0655724" stop-color="#E7FFF1"/>
<stop offset="0.908" stop-color="#53B58E"/>
</linearGradient>
</defs>
</svg>

<?xml version="1.0" encoding="utf-8"?>
<!-- Generator: Adobe Illustrator 18.0.0, SVG Export Plug-In . SVG Version: 6.00 Build 0)  -->
<!DOCTYPE svg PUBLIC "-//W3C//DTD SVG 1.1//EN" "http://www.w3.org/Graphics/SVG/1.1/DTD/svg11.dtd">
<svg version="1.1" id="Layer_1" xmlns="http://www.w3.org/2000/svg" xmlns:xlink="http://www.w3.org/1999/xlink" x="0px" y="0px"
	 viewBox="0 0 1586.9 196.5" enable-background="new 0 0 1586.9 196.5" xml:space="preserve">
<linearGradient id="SVGID_1_" gradientUnits="userSpaceOnUse" x1="802.5264" y1="80.3371" x2="797.3304" y2="184.9941">
	<stop  offset="6.557240e-002" style="stop-color:#F6F4FE"/>
	<stop  offset="0.908" style="stop-color:#D0C5FD"/>
</linearGradient>
<path fill="url(#SVGID_1_)" d="M1340.7,176.8c-0.5-0.3-0.9-1-1.4-1c-2.5-0.1-5,0.1-7.5-0.1c-6.7-0.3-13.5-0.3-20.2-1.1
	c-6.7-0.8-13.3-1.4-20-2c-6.1-0.6-12.1-2-18.2-2.9c-5.3-0.8-10.7-1.2-16-2.1c-7-1.2-14-2.4-20.9-4c-9.1-2.1-18.1-4.6-27.1-6.9
	c-3.6-0.9-7.1-2-10.7-3c-12.1-3.2-24.1-6.9-36.2-10.3c-11.8-3.3-23.6-6.4-35.4-9.5c-11.2-3-22.7-4.9-34-7.3
	c-7.7-1.6-15.4-3.4-23.2-4.9c-4.9-0.9-10-1.8-15-1.9c-1.9-0.1-2.6-2.4-4.7-1.5c-1.6,0.7-3.4,0.2-5.2-0.4c-2.6-0.9-5.4-0.9-8.2-1.2
	c-3.7-0.4-7.7,0-11.2-1.2c-4-1.4-8.3,0.3-12-1.8c-0.1-0.1-0.3,0-0.5,0c-4.9-0.3-9.8-0.6-14.7-1c-2.9-0.2-5.8-0.7-8.7-1
	c-2.8-0.2-5.6,0.5-8.2-1c-0.4-0.2-1,0-1.5,0c-14.2-0.5-28.5-1.4-42.7-1.1c-3.4,0.1-6.9-1.2-10.2-0.8c-12.6,1.6-25.2,0.4-37.7,1
	c-2.5,0.1-4.9,0.1-7.4,0.3c-2.6,0.1-5.2,0.3-7.8,0.7c-7.4,1.1-15,1.3-22.4,2.2c-3.6,0.5-7.4,0.3-11,1.6c-2.6,0.9-5.8,0.6-8.7,1
	c-6.6,1-13.1,2.1-19.7,3.1c-6.4,1-13,1.3-19.4,2.1c-2.9,0.4-5.7,1-8.5,1.7c-2.9,0.7-5.8,0-8.7,1c-3.1,1.1-6.8,0.8-10.2,1.2
	c-1.9,0.2-3.8,0.7-5.7,1c-1.9,0.2-3.8,0.2-5.8,0.8c-2.9,0.9-6.1,0.3-9.2,1.1c-3.8,0.9-7.8,0.7-11.7,1.2c-1.9,0.2-3.8,0.6-5.7,1
	c-1.7,0.3-3.5,0.6-5.2,0.9c-0.7,0.1-1.3,0.1-2,0.1c-5.2,0-10.3,1.1-15.5,1.9c-4.5,0.7-9.1,0.8-13.7,1.1c-5.4,0.3-10.7,0.9-16,1.9
	c-3.2,0.6-6.5,0.3-9.7,0.9c-4.8,1-9.9,0.3-14.7,1.3c-4.8,1-9.8-0.1-14.5,1.8c-0.3,0.1-0.7,0-1,0c-5.6,0.3-11.2,0.2-16.7,1.1
	c-5.2,0.9-10.5,0-15.5,1.8c-0.3,0.1-0.7,0-1,0c-6.7,0.3-13.5,0.6-20.2,1c-3.1,0.2-6.2,0.7-9.2,1c-2.9,0.3-6-0.6-8.7,1
	c-0.3,0.1-0.7,0-1,0c-8.2,0.3-16.5,0.3-24.7,1.1c-6.1,0.6-12.3,0.1-18.2,1.1c-5.6,0.9-11.2,0.2-16.8,0.9c-8.7,1.1-17.5,0.2-26.2,1.1
	c-17.6,1.7-35.2,0.4-52.7,0.8c-9.7,0.2-19.3,0.2-29,0c-10.9-0.2-21.9-0.2-32.7-1.2c-4.9-0.4-9.9-0.4-14.7-0.9
	c-7.6-0.8-15.3-1.5-23-2.1c-6.2-0.5-12.3-1.2-18.5-2c-6.1-0.8-12.3-1-18.3-2.7c-3.2-0.9-6.8-0.7-10.2-1.2c-4.8-0.7-9.6-1.4-14.4-2.3
	c-4.4-0.8-8.8-1.8-13.3-2.7c-6.9-1.4-13.9-2.7-20.8-4.4c-7.4-1.7-14.7-3.7-22-5.6c-12.3-3.3-24.5-6.7-36.3-11.5
	c-9.9-4-19.9-7.5-29.6-11.9C133,98.7,125.4,94,117.4,90c-7.3-3.7-14-8.1-20.7-12.8c-5.9-4.1-11.9-8-17.1-13.1
	c-3.1-3-6.4-5.7-9.5-8.6c-7.2-6.8-14-14-19.3-22.9c1.8-1.6,3.3-3.9,6.4-2.1c0.4,0.2,0.9,0.3,1.4,0.3c7.1,0.3,14.1,0.7,21.2,1
	c6.4,0.3,12.8,0.8,19.2,1.2c4.1,0.3,8.2,0.1,12.2,0.8c5.6,1,11.3,0.2,16.7,1.1c4.3,0.7,8.6,0.2,12.7,0.9c5.4,1,10.9,0.2,16.2,1.1
	c4.6,0.8,9.4-0.1,13.7,1c6.2,1.6,12.5-0.4,18.5,1.8c0.3,0.1,0.7,0,1,0c7.7,0.3,15.5,0.2,23.2,1.1c5.6,0.7,11.2,0.2,16.7,1.1
	c4.1,0.7,8.2,0.2,12.2,0.9c5.6,1,11.2,0.2,16.7,1.1c4.1,0.7,8.2,0.2,12.2,0.9c5.6,1,11.3,0.2,16.7,1.1c4.3,0.7,8.6,0.2,12.7,0.9
	c5.4,1,10.9,0.2,16.2,1.1c4.6,0.8,9.4-0.1,13.7,1c6.2,1.5,12.5-0.4,18.5,1.8c0.3,0.1,0.7,0,1,0c7.7,0.3,15.5,0.2,23.2,1.1
	c5.6,0.7,11.2,0.2,16.7,1.1c4.1,0.7,8.2,0.2,12.2,0.9c5.6,1,11.3,0.2,16.7,1.1c4.3,0.7,8.6,0.2,12.7,0.9c5.4,1,10.9,0.2,16.2,1.1
	c4.3,0.7,8.6,0.2,12.7,0.9c5.4,1,10.9,0.2,16.2,1.1c4.6,0.8,9.4-0.1,13.7,1c6.2,1.5,12.5-0.4,18.5,1.8c0.3,0.1,0.7,0,1,0
	c7.7,0.3,15.5,0.2,23.2,1.1c5.6,0.7,11.2,0.2,16.7,1.1c4.1,0.7,8.2,0.2,12.2,0.9c5.6,1,11.3,0.2,16.7,1.1c4.3,0.7,8.6,0.2,12.7,0.9
	c5.4,1,10.9,0.2,16.2,1.1c4.3,0.7,8.6,0.2,12.7,0.9c5.4,1,10.9,0.2,16.2,1.1c4.6,0.8,9.4-0.1,13.7,1c6.2,1.5,12.5-0.4,18.5,1.8
	c0.3,0.1,0.7,0,1,0c7.7,0.3,15.5,0.2,23.2,1.1c5.6,0.7,11.2,0.2,16.7,1.1c4.1,0.7,8.2,0.2,12.2,0.9c5.6,1,11.3,0.2,16.7,1.1
	c4.3,0.7,8.6,0.2,12.7,0.9c5.4,1,10.9,0.2,16.2,1.1c4.3,0.7,8.6,0.2,12.7,0.9c5.4,1,10.9,0.2,16.2,1.1c4.6,0.8,9.3-0.1,13.7,1
	c6.2,1.5,12.5-0.4,18.5,1.8c0.3,0.1,0.7,0,1,0c7.7,0.3,15.5,0.2,23.2,1.1c5.6,0.7,11.2,0.2,16.7,1.1c4.1,0.7,8.2,0.2,12.2,0.9
	c5.6,1,11.3,0.2,16.7,1.1c4.3,0.7,8.6,0.2,12.7,0.9c5.4,1,10.9,0.2,16.2,1.1c4.3,0.7,8.6,0.2,12.7,0.9c5.4,1,10.9,0.2,16.2,1.1
	c4.6,0.8,9.3-0.1,13.7,1c6.2,1.5,12.5-0.4,18.5,1.8c0.3,0.1,0.7,0,1,0c7.7,0.3,15.5,0.2,23.2,1.1c5.6,0.7,11.2,0.2,16.7,1.1
	c4.1,0.7,8.2,0.2,12.2,0.9c5.6,1,11.3,0.2,16.7,1.1c4.3,0.7,8.6,0.2,12.7,0.9c5.4,1,10.9,0.2,16.2,1.1c4.3,0.7,8.6,0.2,12.7,0.9
	c5.4,1,10.9,0.2,16.2,1.1c4.6,0.8,9.4-0.1,13.7,1c6.2,1.5,12.5-0.4,18.5,1.8c0.3,0.1,0.7,0,1,0c7.7,0.3,15.5,0.2,23.2,1.1
	c5.6,0.7,11.2,0.2,16.7,1.1c4.1,0.7,8.2,0.2,12.2,0.9c5.6,1,11.3,0.2,16.7,1.1c4.3,0.7,8.6,0.2,12.7,0.9c5.4,1,10.9,0.2,16.2,1.1
	c4.3,0.7,8.6,0.2,12.7,0.9c5.4,1,10.9,0.2,16.2,1.1c4.6,0.8,9.4-0.1,13.7,1c6.2,1.5,12.5-0.4,18.5,1.8c0.3,0.1,0.7,0,1,0
	c7.7,0.3,15.5,0.2,23.2,1.1c5.6,0.7,11.2,0.2,16.7,1.1c4.1,0.7,8.2,0.2,12.2,0.9c5.6,1,11.3,0.2,16.7,1.1c4.3,0.7,8.6,0.2,12.7,0.9
	c5.4,1,10.9,0.2,16.2,1.1c4.3,0.7,8.6,0.2,12.7,0.9c5.4,1,10.9,0.2,16.2,1.1c4.6,0.8,9.4-0.1,13.7,1c6.2,1.5,12.5-0.4,18.5,1.8
	c0.3,0.1,0.7,0,1,0c7.7,0.3,15.5,0.2,23.2,1.1c5.6,0.7,11.2,0.2,16.7,1.1c4.1,0.7,8.2,0.2,12.2,0.9c5.6,1,11.2,0.4,16.7,1.1
	c3.3,0.4,6.5,0.9,9.7,0.8c2.5-0.1,4,1,5.2,3.4c-1.2,0.8-2.3,1.7-3.5,2.4c-8.1,5.1-16.4,9.8-25.2,13.6c-8.8,3.8-17.7,6.9-26.8,9.7
	c-7.7,2.4-15.4,4.5-23.3,6.1c-6.2,1.2-12.4,2.1-18.7,3c-5.3,0.7-10.6,1.4-16,2c-6.7,0.8-13.3,1.3-20,2.1c-6.5,0.8-12.8,0.6-19.3,0.8
	c-0.5,0-1,0.6-1.4,1C1380,176.8,1360.4,176.8,1340.7,176.8z"/>
</svg>
